X:1
T:WHEN SHADOWS FALL
M:3/4
Q:1/4=120
K:F
A6|d4A2|A2G2F2|A4A2|A4A2|d4A2|A2G2F2|A6|-A4A2|
d4e2|f2e2d2|B4A2|G4B2|A2G2F2|E2F2E2|D7/2||
